outputs/icons/content/redo_round.svg

<svg width="1200" height="1200" viewBox="0 0 1200 1200" fill="none" xmlns="http://www.w3.org/2000/svg"><g clip-path="url(#clip0_225_3321)"><path d="M920 530C827.5 449.5 707.5 400 575 400C367.002 400 188.002 521 103.002 696.5C87.002 730 105.002 770 140.502 782C170.002 792 202.002 778 215.502 750C280.502 617 417.002 525 575 525C672.5 525 761.5 561 831 619L735.5 714.5C704 746 726 800 770.5 800H1050C1077.5 800 1100 777.5 1100 750V470.5C1100 426 1046 403.5 1014.5 435L920 530Z" fill="#1D1E23"/></g><defs><clipPath id="clip0_225_3321"><path width="24" fill="white" d="M0 0H1200V1200H0V0z"/></clipPath></defs></svg>

<svg xmlns="http://www.w3.org/2000/svg" width="1200" height="1200" fill="none"><g clip-path="url(#a)"><path fill="#000" d="M920 530c-92.5-80.5-212.5-130-345-130-207.998 0-386.998 121-471.998 296.5-16 33.5 2 73.5 37.5 85.5 29.5 10 61.5-4 75-32 65-133 201.5-225 359.498-225 97.5 0 186.5 36 256 94l-95.5 95.5C704 746 726 800 770.5 800H1050c27.5 0 50-22.5 50-50V470.5c0-44.5-54-67-85.5-35.5z"/></g><defs><clipPath id="a"><path fill="#fff" d="M0 0h1200v1200H0z"/></clipPath></defs></svg>
